X:1002
T:Abbots Bromley Horn Dance
R:Jig
C:Trad.
O:England, Thaxted
Z:Paul Hardy's Session Tunebook 2015 (see www.paulhardy.net). Creative Commons cc by-nc-sa licenced.
M:6/8
L:1/8
Q:3/8=60
K:Em
e|"Em"B2e G2e|B2e E2G|"B7"F>GA "Em"G>AB|"B7"A>GF "Em"G2 e|"Em"B2e G2e|B2e E2G|"B7"F>GA "Em"G>AB|"B7"A>GF "Em"E2 e||
"Am"c2e cde|A2c ABc|"D"FGA "Em"GFE|"D"DEF "Em"B,2g|"C"e2g e>fg|c2e c>de|"D"d>cB "B7"A>GF|"Em"E3 E2 A||

